X: 218
P: Longways for as many as will
M: C|
L: 1/8
K: Gm
d2 |\
d2 |\
g2 (ga) b2 f2 | d2 (cB) f2 B2 |
d2 g2 a2 ^f2 | g2 (fe) (dc) (BA) | B2 f2 (AB)(AG) | ^F2 D4 ^F2 |\

